X: 1
T: Merrily Danced The Quaker’s Wife
R: Jig
M: 6/8
L: 1/8
K: D
A | def A2f | g2f e2d | def AFA | B2c d2A |
| def A2f | g2f e2d | def AFA | B2c d2 |
A | d2f a2f | b2f a2f | d2f a2g | ~f3 a3 |
| b2g efg | a2f e2d| def AFA| B2c d2